X: 8
T: Governor King's March  v.2
P: piffero secondo b0030
O: Duke Terreri
%R: march
F: http://ancients.sudburymuster.org/mus/ssp/pdf/belleisleF.pdf
Z: 2019 John Chambers <jc:trillian.mit.edu>
M: 2/4
L: 1/16
K: D
D3F |\
F4 F3F F4 BAGF | G4 G3G G3AB3G |\
G2F2D2F2 F2E2E2D2 | C4 C3C C4 D3D |\
F4 F3F F4 BAGF | G4 G3G G3AB3G |
G3FD3F F3ED3G | F4 F3F F4 :: A2A2 |\
F2FF F2F2 C2CC C2C2 | F2FF C2CC D2FF F2F2 |\
E2CC C2C2 D2FF F2F2 |
(cd)(cB) (AB)(AG) (FG)(FE) (3(DCB,) (3(CDE) |\
F4 F3F F4 BAGF | G4 G3G G3AB3G |\
G3FD3c c3BA3G | F4 F3F F4 :|

% %sep 1 1 200
% %center - - - - - - - - - -
% Whatever we want at the bottom of each set belongs here.
